X:1
T:James Gibb editions
T:Psalm 107 (Becker) - Schütz
%%score [ ( 1 2 ) ( 3 4 ) ]
L:1/8
Q:1/4=98
M:3/4
K:F
V:1 treble nm="Soprano Alto"
V:2 treble 
V:3 bass nm="Tenor Bass"
V:4 bass 
V:1
"^Cornelius Becker\n(1561-1604)""^Psalm 107, SWV 205""^Heinrich Schütz\n(1585-1672)" G2 A2 B2 | %1
w: ~Dan- ket dem|
w: sein Güt und|
 A4 B2 | c4 d2 | B6 | B2 c2 d2 | (G3 A B2) | c2 A4 | G6 :| B2 c2 A2 | G6 | c2 d2 B2 | A4 A2 | %12
w: Her- ren,|un- serm|Gott,|denn er ist|freund\- * *|lich seh-|re,|all Men- schen-|kind,|die durch ihn|sind aus|
w: Treu er|im- mer-|fort|tag- lich an|uns * *|ver- meh-|ret,|||||
 c4 G2 | B4 A2- | A2 G4 | ^F6 | D2 F2 G2 | A6 | F2 G2 B2 | c6 | A2 d2 c2 | (B3 A/B/ c2) | B2 A4 | %23
w: Not er-|lö- set|* wor-|den,|sol- len mit|Dank|ihr Le- ben|lang|ihn prei- sen|al\- * * *|ler Or-|
w: |||||||||||
 G12 |] %24
w: ten.|
w: |
V:2
 D2 D2 D2 | D4 D2 | F4 F2 | F6 | F2 F2 F2 | (_E4 D2) | _E2 D4 | D6 :| D2 G2 =F2 | E6 | F2 F2 F2 | %11
 F4 F2 | G4 _E2 | F4 F2- | F2 D4 | D6 | A,2 D2 !courtesy!=E2 | F6 | C2 C2 F2 | E6 | D2 F2 F2 | %21
 (D3 C/D/ _E2) | G2 ^F4 | G12 |] %24
V:3
 B,2 A,2 G,2 | ^F,4 G,2 | A,4 B,2 | D6 | D2 C2 B,2 | B,4 G,2- | G,2 ^F,4 | G,6 :| G,2 G,2 C2 | C6 | %10
 C2 B,2 D2 | C4 C2 | _E4 B,2 | D4 C2- | C2 B,4 | A,6 | %16
"^3. All, derer Seel aus Hungersnot \nund vor Durst wollt verschmachten, \ndie riefen an den höchsten Gott, \nder sie von Angst frei machte, \nführt sie ein'n Weg und richt'gen Steg, \ndadurch zur Stadt sie kamen, \ndie sie für dich frei sicherlich, \nzur Wohnung bald einnahmen.\n\n4. Die sollen danken Gott, dem Herrn,\nund seine Güte preisen, \nder an den Menschenkindern gern \nsein Wundermacht beweiset, \nder Durst und Hung'r und allen Kumm'r \ndurch seine Gnade stillet, \ndie elend Seel, so leidet Qual, \nmit Gütern er erfüllet.\n\n15. Diejenigen, so Itten Not \nim Feld und in den Gründen, \nwenn austrocknen die Bäche gut, \ndie Wasserquell verschwunden, \ndas Land nichts trug, es war verflucht, \ndas erst im Segen standen,\nwegen der Sund der Menschenkind, \ndie Gott darin gefunden." F,2 B,2 B,2 | %17
 C6 | A,2 F,2 F,2 | G,6 | %20
 F,2"^16. Der treue Gott aus milder Hand \ngibt reichlich seinen Segen, \nerquickt das ausgedorrte Land \nmit einem fruchtbarn Regen, \nBrunnen und Teich sind wasserreich, \ndie Quell im Grund entspringen, \ndurch Gottes Gnad nimmt zu die Stadt, \nund ihr muß wohlgelingen.\n\n19. Die sollen danken Gott, dem Herrn,\nund seine Güte preisen, \nder an den Menschenkindern gern \nsein Wundermacht beweiset, \nDankopfer gut mit fröhlich'm Mut \nsolln sie dem Herren geben, \nzu jeder Zeit in Nüchternheit\nin seinem Dienste leben.\n\n20. Wohl dem, der dieses fleißig merkt,\nbetrachts in seinem Herzen, \ndenn so er ansieht Gottes Werk, \nso gibt es Trost in Schmerzen, \nGotts Gütigkeit währt allezeit, \nsein Wohltat hoch vermehret, \nsein Gnad bereit alls Herzeleid \nendlich zur Freuden kehret." B,2 A,2 | %21
 G,6 | G,2 D4 | D12 |] %24
V:4
 G,2 ^F,2 G,2 | D,4 G,2 | =F,4 B,2 | B,6 | B,2 A,2 G,2 | (_E,3 F,) G,2 | C,2 D,4 | G,,6 :| %8
 G,2 E,2 =F,2 | C,6 | A,,2 B,,2 B,,2 | F,4 F,2 | C,4 _E,2 | B,,4 F,2- | F,2 G,4 | D,6 | %16
 D,2 B,,2 G,,2 | F,,6 | F,2 F,2 D,2 | C,6 | D,2 B,,2 F,2 | G,4 C,2- | C,2 D,4 | G,,12 |] %24

